Newaita-dark/apps/24/ktorrent.svg

<?xml version="1.0" encoding="UTF-8"?>
<svg xmlns="http://www.w3.org/2000/svg" xmlns:xlink="http://www.w3.org/1999/xlink" width="24px" height="24px" viewBox="0 0 24 24" version="1.1">
<defs>
<radialGradient id="radial0" gradientUnits="userSpaceOnUse" cx="450.908936" cy="189.579361" fx="450.908936" fy="189.579361" r="21.166656" gradientTransform="matrix(0.000000130628,-0.0585994,-0.105479,-0.0000000761539,31.655869,47.696499)">
<stop offset="0" style="stop-color:rgb(0%,0%,0%);stop-opacity:0.313726;"/>
<stop offset="0.222222" style="stop-color:rgb(0%,0%,0%);stop-opacity:0.27451;"/>
<stop offset="1" style="stop-color:rgb(0%,0%,0%);stop-opacity:0;"/>
</radialGradient>
<radialGradient id="radial1" gradientUnits="userSpaceOnUse" cx="450.908936" cy="189.579361" fx="450.908936" fy="189.579361" r="21.166656" gradientTransform="matrix(-0.000000130628,0.0585994,0.105479,0.0000000761539,-7.841093,-5.645609)">
<stop offset="0" style="stop-color:rgb(0%,0%,0%);stop-opacity:0.313726;"/>
<stop offset="0.222222" style="stop-color:rgb(0%,0%,0%);stop-opacity:0.27451;"/>
<stop offset="1" style="stop-color:rgb(0%,0%,0%);stop-opacity:0;"/>
</radialGradient>
<radialGradient id="radial2" gradientUnits="userSpaceOnUse" cx="450.908936" cy="189.579361" fx="450.908936" fy="189.579361" r="21.166656" gradientTransform="matrix(-0.000000130628,-0.0585994,0.105479,-0.0000000761539,-7.841093,47.696499)">
<stop offset="0" style="stop-color:rgb(0%,0%,0%);stop-opacity:0.313726;"/>
<stop offset="0.222222" style="stop-color:rgb(0%,0%,0%);stop-opacity:0.27451;"/>
<stop offset="1" style="stop-color:rgb(0%,0%,0%);stop-opacity:0;"/>
</radialGradient>
<radialGradient id="radial3" gradientUnits="userSpaceOnUse" cx="450.908936" cy="189.579361" fx="450.908936" fy="189.579361" r="21.166656" gradientTransform="matrix(0.000000130628,0.0585994,-0.105479,0.0000000761539,31.655868,-5.64561)">
<stop offset="0" style="stop-color:rgb(0%,0%,0%);stop-opacity:0.313726;"/>
<stop offset="0.222222" style="stop-color:rgb(0%,0%,0%);stop-opacity:0.27451;"/>
<stop offset="1" style="stop-color:rgb(0%,0%,0%);stop-opacity:0;"/>
</radialGradient>
<filter id="alpha" filterUnits="objectBoundingBox" x="0%" y="0%" width="100%" height="100%">
  <feColorMatrix type="matrix" in="SourceGraphic" values="0 0 0 0 1 0 0 0 0 1 0 0 0 0 1 0 0 0 1 0"/>
</filter>
<mask id="mask0">
  <g filter="url(#alpha)">
<rect x="0" y="0" width="24" height="24" style="fill:rgb(0%,0%,0%);fill-opacity:0.99;stroke:none;"/>
  </g>
</mask>
<linearGradient id="linear0" gradientUnits="userSpaceOnUse" x1="960" y1="1695.118164" x2="960" y2="175.118118" gradientTransform="matrix(0.0124035,0,0,0.0124035,0,0)">
<stop offset="0" style="stop-color:rgb(25.882354%,64.705884%,96.078432%);stop-opacity:1;"/>
<stop offset="1" style="stop-color:rgb(39.215687%,70.980394%,96.470588%);stop-opacity:1;"/>
</linearGradient>
<clipPath id="clip1">
  <rect x="0" y="0" width="24" height="24"/>
</clipPath>
<g id="surface5" clip-path="url(#clip1)">
<path style=" stroke:none;fill-rule:nonzero;fill:url(#linear0);" d="M 8.929688 2.171875 C 8.378906 2.171875 7.9375 2.613281 7.9375 3.164062 L 7.9375 13.085938 L 4.960938 13.085938 C 4.039062 13.085938 3.617188 14.234375 4.316406 14.832031 L 11.261719 20.785156 C 11.632812 21.105469 12.179688 21.105469 12.554688 20.785156 L 19.5 14.832031 C 20.199219 14.234375 19.773438 13.085938 18.851562 13.085938 L 15.875 13.085938 L 15.875 3.164062 C 15.875 2.613281 15.433594 2.171875 14.882812 2.171875 Z M 8.929688 2.171875 "/>
</g>
<mask id="mask1">
  <g filter="url(#alpha)">
<rect x="0" y="0" width="24" height="24" style="fill:rgb(0%,0%,0%);fill-opacity:0.99;stroke:none;"/>
  </g>
</mask>
<clipPath id="clip2">
  <rect x="0" y="0" width="24" height="24"/>
</clipPath>
<g id="surface8" clip-path="url(#clip2)">
<path style=" stroke:none;fill-rule:nonzero;fill:rgb(100%,100%,100%);fill-opacity:0.392157;" d="M 8.929688 2.171875 C 8.378906 2.171875 7.9375 2.613281 7.9375 3.164062 L 7.9375 3.535156 C 7.9375 2.988281 8.378906 2.542969 8.929688 2.542969 L 14.882812 2.542969 C 15.433594 2.542969 15.875 2.988281 15.875 3.535156 L 15.875 3.164062 C 15.875 2.613281 15.433594 2.171875 14.882812 2.171875 Z M 4.960938 13.085938 C 4.285156 13.085938 3.875 13.707031 3.984375 14.273438 C 4.066406 13.835938 4.433594 13.460938 4.960938 13.460938 L 7.9375 13.460938 L 7.9375 13.085938 Z M 15.875 13.085938 L 15.875 13.460938 L 18.851562 13.460938 C 19.382812 13.460938 19.746094 13.835938 19.828125 14.273438 C 19.9375 13.707031 19.53125 13.085938 18.851562 13.085938 Z M 15.875 13.085938 "/>
</g>
<mask id="mask2">
  <g filter="url(#alpha)">
<rect x="0" y="0" width="24" height="24" style="fill:rgb(0%,0%,0%);fill-opacity:0.99;stroke:none;"/>
  </g>
</mask>
<clipPath id="clip3">
  <rect x="0" y="0" width="24" height="24"/>
</clipPath>
<g id="surface11" clip-path="url(#clip3)">
<path style=" stroke:none;fill-rule:nonzero;fill:rgb(0%,0%,0%);fill-opacity:0.235294;" d="M 3.972656 13.996094 C 3.945312 14.292969 4.046875 14.601562 4.316406 14.832031 L 11.261719 20.785156 C 11.632812 21.105469 12.179688 21.105469 12.554688 20.785156 L 19.5 14.832031 C 19.765625 14.601562 19.871094 14.292969 19.84375 13.996094 C 19.820312 14.234375 19.710938 14.46875 19.5 14.648438 L 12.554688 20.605469 C 12.179688 20.921875 11.632812 20.921875 11.261719 20.605469 L 4.316406 14.648438 C 4.101562 14.46875 3.992188 14.234375 3.972656 13.996094 Z M 3.972656 13.996094 "/>
</g>
<mask id="mask3">
  <g filter="url(#alpha)">
<rect x="0" y="0" width="24" height="24" style="fill:rgb(0%,0%,0%);fill-opacity:0.99;stroke:none;"/>
  </g>
</mask>
<linearGradient id="linear1" gradientUnits="userSpaceOnUse" x1="254" y1="-126.333344" x2="254" y2="-105.166672" gradientTransform="matrix(0.0468795,0,0,0.0468795,0,10.079087)">
<stop offset="0" style="stop-color:rgb(11.764706%,53.333336%,89.803922%);stop-opacity:1;"/>
<stop offset="1" style="stop-color:rgb(12.941177%,58.823532%,95.294118%);stop-opacity:1;"/>
</linearGradient>
<clipPath id="clip4">
  <rect x="0" y="0" width="24" height="24"/>
</clipPath>
<g id="surface14" clip-path="url(#clip4)">
<path style=" stroke:none;fill-rule:nonzero;fill:url(#linear1);" d="M 7.9375 4.15625 L 15.875 4.15625 L 15.875 5.148438 L 7.9375 5.148438 Z M 7.9375 4.15625 "/>
</g>
<mask id="mask4">
  <g filter="url(#alpha)">
<rect x="0" y="0" width="24" height="24" style="fill:rgb(0%,0%,0%);fill-opacity:0.99;stroke:none;"/>
  </g>
</mask>
<linearGradient id="linear2" gradientUnits="userSpaceOnUse" x1="254" y1="-126.333344" x2="254" y2="-105.166672" gradientTransform="matrix(0.0468795,0,0,0.0468795,0,12.063653)">
<stop offset="0" style="stop-color:rgb(11.764706%,53.333336%,89.803922%);stop-opacity:1;"/>
<stop offset="1" style="stop-color:rgb(12.941177%,58.823532%,95.294118%);stop-opacity:1;"/>
</linearGradient>
<clipPath id="clip5">
  <rect x="0" y="0" width="24" height="24"/>
</clipPath>
<g id="surface17" clip-path="url(#clip5)">
<path style=" stroke:none;fill-rule:nonzero;fill:url(#linear2);" d="M 7.9375 6.140625 L 15.875 6.140625 L 15.875 7.132812 L 7.9375 7.132812 Z M 7.9375 6.140625 "/>
</g>
<mask id="mask5">
  <g filter="url(#alpha)">
<rect x="0" y="0" width="24" height="24" style="fill:rgb(0%,0%,0%);fill-opacity:0.99;stroke:none;"/>
  </g>
</mask>
<linearGradient id="linear3" gradientUnits="userSpaceOnUse" x1="254" y1="-126.333344" x2="254" y2="-105.166672" gradientTransform="matrix(0.0468795,0,0,0.0468795,0,14.048217)">
<stop offset="0" style="stop-color:rgb(11.764706%,53.333336%,89.803922%);stop-opacity:1;"/>
<stop offset="1" style="stop-color:rgb(12.941177%,58.823532%,95.294118%);stop-opacity:1;"/>
</linearGradient>
<clipPath id="clip6">
  <rect x="0" y="0" width="24" height="24"/>
</clipPath>
<g id="surface20" clip-path="url(#clip6)">
<path style=" stroke:none;fill-rule:nonzero;fill:url(#linear3);" d="M 7.9375 8.125 L 15.875 8.125 L 15.875 9.117188 L 7.9375 9.117188 Z M 7.9375 8.125 "/>
</g>
<mask id="mask6">
  <g filter="url(#alpha)">
<rect x="0" y="0" width="24" height="24" style="fill:rgb(0%,0%,0%);fill-opacity:0.99;stroke:none;"/>
  </g>
</mask>
<clipPath id="clip7">
  <rect x="0" y="0" width="24" height="24"/>
</clipPath>
<g id="surface23" clip-path="url(#clip7)">
<path style=" stroke:none;fill-rule:nonzero;fill:rgb(100%,100%,100%);fill-opacity:0.392157;" d="M 7.9375 9.117188 L 15.875 9.117188 L 15.875 9.367188 L 7.9375 9.367188 Z M 7.9375 9.117188 "/>
</g>
<mask id="mask7">
  <g filter="url(#alpha)">
<rect x="0" y="0" width="24" height="24" style="fill:rgb(0%,0%,0%);fill-opacity:0.99;stroke:none;"/>
  </g>
</mask>
<clipPath id="clip8">
  <rect x="0" y="0" width="24" height="24"/>
</clipPath>
<g id="surface26" clip-path="url(#clip8)">
<path style=" stroke:none;fill-rule:nonzero;fill:rgb(100%,100%,100%);fill-opacity:0.392157;" d="M 7.9375 7.132812 L 15.875 7.132812 L 15.875 7.382812 L 7.9375 7.382812 Z M 7.9375 7.132812 "/>
</g>
<mask id="mask8">
  <g filter="url(#alpha)">
<rect x="0" y="0" width="24" height="24" style="fill:rgb(0%,0%,0%);fill-opacity:0.99;stroke:none;"/>
  </g>
</mask>
<clipPath id="clip9">
  <rect x="0" y="0" width="24" height="24"/>
</clipPath>
<g id="surface29" clip-path="url(#clip9)">
<path style=" stroke:none;fill-rule:nonzero;fill:rgb(100%,100%,100%);fill-opacity:0.392157;" d="M 7.9375 5.148438 L 15.875 5.148438 L 15.875 5.398438 L 7.9375 5.398438 Z M 7.9375 5.148438 "/>
</g>
<mask id="mask9">
  <g filter="url(#alpha)">
<rect x="0" y="0" width="24" height="24" style="fill:rgb(0%,0%,0%);fill-opacity:0.99;stroke:none;"/>
  </g>
</mask>
<clipPath id="clip10">
  <rect x="0" y="0" width="24" height="24"/>
</clipPath>
<g id="surface32" clip-path="url(#clip10)">
<path style=" stroke:none;fill-rule:nonzero;fill:rgb(0%,0%,0%);fill-opacity:0.235294;" d="M 7.9375 4.15625 L 15.875 4.15625 L 15.875 4.40625 L 7.9375 4.40625 Z M 7.9375 4.15625 "/>
</g>
<mask id="mask10">
  <g filter="url(#alpha)">
<rect x="0" y="0" width="24" height="24" style="fill:rgb(0%,0%,0%);fill-opacity:0.99;stroke:none;"/>
  </g>
</mask>
<clipPath id="clip11">
  <rect x="0" y="0" width="24" height="24"/>
</clipPath>
<g id="surface35" clip-path="url(#clip11)">
<path style=" stroke:none;fill-rule:nonzero;fill:rgb(0%,0%,0%);fill-opacity:0.235294;" d="M 7.9375 6.140625 L 15.875 6.140625 L 15.875 6.390625 L 7.9375 6.390625 Z M 7.9375 6.140625 "/>
</g>
<mask id="mask11">
  <g filter="url(#alpha)">
<rect x="0" y="0" width="24" height="24" style="fill:rgb(0%,0%,0%);fill-opacity:0.99;stroke:none;"/>
  </g>
</mask>
<clipPath id="clip12">
  <rect x="0" y="0" width="24" height="24"/>
</clipPath>
<g id="surface38" clip-path="url(#clip12)">
<path style=" stroke:none;fill-rule:nonzero;fill:rgb(0%,0%,0%);fill-opacity:0.235294;" d="M 7.9375 8.125 L 15.875 8.125 L 15.875 8.375 L 7.9375 8.375 Z M 7.9375 8.125 "/>
</g>
<mask id="mask12">
  <g filter="url(#alpha)">
<rect x="0" y="0" width="24" height="24" style="fill:rgb(0%,0%,0%);fill-opacity:0.99;stroke:none;"/>
  </g>
</mask>
<clipPath id="clip13">
  <rect x="0" y="0" width="24" height="24"/>
</clipPath>
<g id="surface41" clip-path="url(#clip13)">
<path style=" stroke:none;fill-rule:nonzero;fill:rgb(12.941177%,12.941177%,12.941177%);fill-opacity:1;" d="M 8.929688 2.101562 C 8.34375 2.101562 7.867188 2.578125 7.867188 3.164062 L 7.867188 13.015625 L 4.960938 13.015625 C 4.472656 13.015625 4.109375 13.324219 3.964844 13.710938 C 3.820312 14.097656 3.898438 14.566406 4.269531 14.886719 L 11.214844 20.839844 C 11.613281 21.179688 12.203125 21.179688 12.597656 20.839844 L 19.542969 14.886719 C 19.917969 14.566406 19.992188 14.097656 19.851562 13.710938 C 19.707031 13.324219 19.34375 13.015625 18.851562 13.015625 L 15.945312 13.015625 L 15.945312 3.164062 C 15.945312 2.578125 15.472656 2.101562 14.882812 2.101562 Z M 8.929688 2.242188 L 14.882812 2.242188 C 15.394531 2.242188 15.804688 2.652344 15.804688 3.164062 L 15.804688 13.085938 C 15.804688 13.125 15.835938 13.15625 15.875 13.15625 L 18.851562 13.15625 C 19.285156 13.15625 19.59375 13.421875 19.71875 13.757812 C 19.84375 14.097656 19.78125 14.5 19.453125 14.78125 L 12.507812 20.734375 C 12.160156 21.03125 11.652344 21.03125 11.308594 20.734375 L 4.363281 14.78125 C 4.035156 14.5 3.972656 14.097656 4.097656 13.757812 C 4.222656 13.421875 4.53125 13.15625 4.960938 13.15625 L 7.9375 13.15625 C 7.976562 13.15625 8.007812 13.125 8.007812 13.085938 L 8.007812 3.164062 C 8.007812 2.652344 8.417969 2.242188 8.929688 2.242188 Z M 8.929688 2.242188 "/>
</g>
</defs>
<g id="surface1">
<path style=" stroke:none;fill-rule:nonzero;fill:url(#radial0);" d="M 11.90625 21.027344 L 13.890625 21.027344 L 13.890625 20.03125 L 11.90625 20.03125 Z M 11.90625 21.027344 "/>
<path style=" stroke:none;fill-rule:nonzero;fill:url(#radial1);" d="M 11.90625 21.027344 L 9.921875 21.027344 L 9.921875 22.019531 L 11.90625 22.019531 Z M 11.90625 21.027344 "/>
<path style=" stroke:none;fill-rule:nonzero;fill:url(#radial2);" d="M 11.90625 21.027344 L 9.921875 21.027344 L 9.921875 20.03125 L 11.90625 20.03125 Z M 11.90625 21.027344 "/>
<path style=" stroke:none;fill-rule:nonzero;fill:url(#radial3);" d="M 11.90625 21.027344 L 13.890625 21.027344 L 13.890625 22.019531 L 11.90625 22.019531 Z M 11.90625 21.027344 "/>
<use xlink:href="#surface5" mask="url(#mask0)"/>
<use xlink:href="#surface8" mask="url(#mask1)"/>
<use xlink:href="#surface11" mask="url(#mask2)"/>
<use xlink:href="#surface14" mask="url(#mask3)"/>
<use xlink:href="#surface17" mask="url(#mask4)"/>
<use xlink:href="#surface20" mask="url(#mask5)"/>
<use xlink:href="#surface23" mask="url(#mask6)"/>
<use xlink:href="#surface26" mask="url(#mask7)"/>
<use xlink:href="#surface29" mask="url(#mask8)"/>
<use xlink:href="#surface32" mask="url(#mask9)"/>
<use xlink:href="#surface35" mask="url(#mask10)"/>
<use xlink:href="#surface38" mask="url(#mask11)"/>
<use xlink:href="#surface41" mask="url(#mask12)"/>
</g>
</svg>

<svg xmlns="http://www.w3.org/2000/svg" xmlns:xlink="http://www.w3.org/1999/xlink" width="32" height="32" viewBox="0 0 24 24"><defs><radialGradient id="s" gradientUnits="userSpaceOnUse" cx="450.909" cy="189.579" fx="450.909" fy="189.579" r="21.167" gradientTransform="matrix(0 -.0586 -.10548 0 31.656 47.696)"><stop offset="0" stop-opacity=".314"/><stop offset=".222" stop-opacity=".275"/><stop offset="1" stop-opacity="0"/></radialGradient><radialGradient id="t" gradientUnits="userSpaceOnUse" cx="450.909" cy="189.579" fx="450.909" fy="189.579" r="21.167" gradientTransform="matrix(0 .0586 .10548 0 -7.841 -5.646)"><stop offset="0" stop-opacity=".314"/><stop offset=".222" stop-opacity=".275"/><stop offset="1" stop-opacity="0"/></radialGradient><radialGradient id="u" gradientUnits="userSpaceOnUse" cx="450.909" cy="189.579" fx="450.909" fy="189.579" r="21.167" gradientTransform="matrix(0 -.0586 .10548 0 -7.841 47.696)"><stop offset="0" stop-opacity=".314"/><stop offset=".222" stop-opacity=".275"/><stop offset="1" stop-opacity="0"/></radialGradient><radialGradient id="v" gradientUnits="userSpaceOnUse" cx="450.909" cy="189.579" fx="450.909" fy="189.579" r="21.167" gradientTransform="matrix(0 .0586 -.10548 0 31.656 -5.646)"><stop offset="0" stop-opacity=".314"/><stop offset=".222" stop-opacity=".275"/><stop offset="1" stop-opacity="0"/></radialGradient><filter id="a" filterUnits="objectBoundingBox" x="0%" y="0%" width="100%" height="100%"><feColorMatrix in="SourceGraphic" values="0 0 0 0 1 0 0 0 0 1 0 0 0 0 1 0 0 0 1 0"/></filter><mask id="x"><path fill-opacity=".988" d="M0 0h24v24H0z" filter="url(#a)"/></mask><linearGradient id="c" gradientUnits="userSpaceOnUse" x1="960" y1="1695.118" x2="960" y2="175.118" gradientTransform="scale(.0124)"><stop offset="0" stop-color="#42a5f5"/><stop offset="1" stop-color="#64b5f6"/></linearGradient><clipPath id="b"><path d="M0 0h24v24H0z"/></clipPath><g id="w" clip-path="url(#b)"><path d="M8.93 2.172a.989.989 0 0 0-.992.992v9.922H4.96c-.922 0-1.344 1.148-.645 1.746l6.946 5.953a.99.99 0 0 0 1.293 0l6.945-5.953c.7-.598.273-1.746-.648-1.746h-2.977V3.164a.989.989 0 0 0-.992-.992zm0 0" fill="url(#c)"/></g><mask id="z"><path fill-opacity=".988" d="M0 0h24v24H0z" filter="url(#a)"/></mask><clipPath id="d"><path d="M0 0h24v24H0z"/></clipPath><g id="y" clip-path="url(#d)"><path d="M8.93 2.172a.989.989 0 0 0-.992.992v.371c0-.547.44-.992.992-.992h5.953c.55 0 .992.445.992.992v-.37a.989.989 0 0 0-.992-.993zM4.96 13.086c-.675 0-1.085.621-.976 1.187a.982.982 0 0 1 .977-.812h2.976v-.375zm10.915 0v.375h2.977c.53 0 .894.375.976.812.11-.566-.297-1.187-.976-1.187zm0 0" fill="#fff" fill-opacity=".392"/></g><mask id="B"><path fill-opacity=".988" d="M0 0h24v24H0z" filter="url(#a)"/></mask><clipPath id="e"><path d="M0 0h24v24H0z"/></clipPath><g id="A" clip-path="url(#e)"><path d="M3.973 13.996a.963.963 0 0 0 .343.836l6.946 5.953a.99.99 0 0 0 1.293 0l6.945-5.953a.973.973 0 0 0 .344-.836.973.973 0 0 1-.344.652l-6.945 5.957a1 1 0 0 1-1.293 0l-6.946-5.957a.942.942 0 0 1-.343-.652zm0 0" fill-opacity=".235"/></g><mask id="D"><path fill-opacity=".988" d="M0 0h24v24H0z" filter="url(#a)"/></mask><linearGradient id="g" gradientUnits="userSpaceOnUse" x1="254" y1="-126.333" x2="254" y2="-105.167" gradientTransform="matrix(.04688 0 0 .04688 0 10.08)"><stop offset="0" stop-color="#1e88e5"/><stop offset="1" stop-color="#2196f3"/></linearGradient><clipPath id="f"><path d="M0 0h24v24H0z"/></clipPath><g id="C" clip-path="url(#f)"><path d="M7.938 4.156h7.937v.992H7.937zm0 0" fill="url(#g)"/></g><mask id="F"><path fill-opacity=".988" d="M0 0h24v24H0z" filter="url(#a)"/></mask><linearGradient id="i" gradientUnits="userSpaceOnUse" x1="254" y1="-126.333" x2="254" y2="-105.167" gradientTransform="matrix(.04688 0 0 .04688 0 12.064)"><stop offset="0" stop-color="#1e88e5"/><stop offset="1" stop-color="#2196f3"/></linearGradient><clipPath id="h"><path d="M0 0h24v24H0z"/></clipPath><g id="E" clip-path="url(#h)"><path d="M7.938 6.14h7.937v.993H7.937zm0 0" fill="url(#i)"/></g><mask id="H"><path fill-opacity=".988" d="M0 0h24v24H0z" filter="url(#a)"/></mask><linearGradient id="k" gradientUnits="userSpaceOnUse" x1="254" y1="-126.333" x2="254" y2="-105.167" gradientTransform="matrix(.04688 0 0 .04688 0 14.048)"><stop offset="0" stop-color="#1e88e5"/><stop offset="1" stop-color="#2196f3"/></linearGradient><clipPath id="j"><path d="M0 0h24v24H0z"/></clipPath><g id="G" clip-path="url(#j)"><path d="M7.938 8.125h7.937v.992H7.937zm0 0" fill="url(#k)"/></g><mask id="J"><path fill-opacity=".988" d="M0 0h24v24H0z" filter="url(#a)"/></mask><clipPath id="l"><path d="M0 0h24v24H0z"/></clipPath><g id="I" clip-path="url(#l)"><path d="M7.938 9.117h7.937v.25H7.937zm0 0" fill="#fff" fill-opacity=".392"/></g><mask id="L"><path fill-opacity=".988" d="M0 0h24v24H0z" filter="url(#a)"/></mask><clipPath id="m"><path d="M0 0h24v24H0z"/></clipPath><g id="K" clip-path="url(#m)"><path d="M7.938 7.133h7.937v.25H7.937zm0 0" fill="#fff" fill-opacity=".392"/></g><mask id="N"><path fill-opacity=".988" d="M0 0h24v24H0z" filter="url(#a)"/></mask><clipPath id="n"><path d="M0 0h24v24H0z"/></clipPath><g id="M" clip-path="url(#n)"><path d="M7.938 5.148h7.937v.25H7.937zm0 0" fill="#fff" fill-opacity=".392"/></g><mask id="P"><path fill-opacity=".988" d="M0 0h24v24H0z" filter="url(#a)"/></mask><clipPath id="o"><path d="M0 0h24v24H0z"/></clipPath><g id="O" clip-path="url(#o)"><path d="M7.938 4.156h7.937v.25H7.937zm0 0" fill-opacity=".235"/></g><mask id="R"><path fill-opacity=".988" d="M0 0h24v24H0z" filter="url(#a)"/></mask><clipPath id="p"><path d="M0 0h24v24H0z"/></clipPath><g id="Q" clip-path="url(#p)"><path d="M7.938 6.14h7.937v.25H7.937zm0 0" fill-opacity=".235"/></g><mask id="T"><path fill-opacity=".988" d="M0 0h24v24H0z" filter="url(#a)"/></mask><clipPath id="q"><path d="M0 0h24v24H0z"/></clipPath><g id="S" clip-path="url(#q)"><path d="M7.938 8.125h7.937v.25H7.937zm0 0" fill-opacity=".235"/></g><mask id="V"><path fill-opacity=".988" d="M0 0h24v24H0z" filter="url(#a)"/></mask><clipPath id="r"><path d="M0 0h24v24H0z"/></clipPath><g id="U" clip-path="url(#r)"><path d="M8.93 2.102c-.586 0-1.063.476-1.063 1.062v9.852H4.961c-.488 0-.852.308-.996.695-.145.387-.067.855.305 1.176l6.945 5.953c.398.34.988.34 1.383 0l6.945-5.953c.375-.32.45-.79.309-1.176a1.054 1.054 0 0 0-1-.695h-2.907V3.164c0-.586-.472-1.062-1.062-1.062zm0 .14h5.953c.512 0 .922.41.922.922v9.922c0 .039.03.07.07.07h2.977c.433 0 .742.266.867.602a.906.906 0 0 1-.266 1.023l-6.945 5.953a.919.919 0 0 1-1.2 0l-6.945-5.953a.906.906 0 0 1-.265-1.023.904.904 0 0 1 .863-.602h2.976a.07.07 0 0 0 .07-.07V3.164c0-.512.411-.922.923-.922zm0 0" fill="#212121"/></g></defs><path d="M11.906 21.027h1.985v-.996h-1.985zm0 0" fill="url(#s)"/><path d="M11.906 21.027H9.922v.993h1.984zm0 0" fill="url(#t)"/><path d="M11.906 21.027H9.922v-.996h1.984zm0 0" fill="url(#u)"/><path d="M11.906 21.027h1.985v.993h-1.985zm0 0" fill="url(#v)"/><use xlink:href="#w" mask="url(#x)"/><use xlink:href="#y" mask="url(#z)"/><use xlink:href="#A" mask="url(#B)"/><use xlink:href="#C" mask="url(#D)"/><use xlink:href="#E" mask="url(#F)"/><use xlink:href="#G" mask="url(#H)"/><use xlink:href="#I" mask="url(#J)"/><use xlink:href="#K" mask="url(#L)"/><use xlink:href="#M" mask="url(#N)"/><use xlink:href="#O" mask="url(#P)"/><use xlink:href="#Q" mask="url(#R)"/><use xlink:href="#S" mask="url(#T)"/><use xlink:href="#U" mask="url(#V)"/></svg>
